X: 100066
M: 3/4
L: 1/16
Q: "Moderato"
K: D
uA2 |\
f6 e2 d2(cd) | (e2a2) f4- f2 vDD | (DF)FF (FA)AA (Ad)(df) | (fe)de (f4 d2) uA2 |
f6 e2 d2(cd) | (e2a2) f6- f2 DD | (DF)FF (FA)AA (Ad)(df) | (fe)de (f4 d2) uA2 |
e2c2 A4- A2A2 | (f>e)(d2 d2)d2 (dA)df | e2c2 A4- A2A2 | (f>e)d2- d4 z2uD2 |
(D2EF G2).A2.B2.c2 | d8- d2F2 | (F2GA B2).c2.d2.e2 | f4- f2A2 |
d2dd d4 A2B2 | =c8- c2e2 | e2ee e4 (ag)fe | d2z2 "^>"D4 z2uA2 |
d2dd d4 A2B2 | =c8- c2e2 | e2ee e4 (ag)fe | d2AA A2A2A2A2 |


